X: 84
T: These Are Good
C: Teton Sioux band 1911-1914
N: Derived from sioux084.krn
O: South Dakota, U.S.A.
N: Teton Sioux Music by Frances Densmore, 1918
Z: transcribed to **kern format by Craig Sapp
L: 1/16
M: 2/4
Q: 1/4=58
K: F clef=bass
%%linebreak <none>
D2 [I:setbarnb 1]| 
D4E2 D2 | 
D2> ^C2 D2 D A, | 
D2> ^C2 D A,3 | 
A,6A,2 | 
D4E2 D2 | 
D2> ^C2 D2 D A, | 
D2> ^C2 D A,3 | 
A,4^G,2 A, G, | 
A,2> ^G,2 A, F,3 | 
F,4D,2 D,2 | 
D,6E, D, | 
F,6D,2 | 
D,6D, C, | 
D,4E,2 D, C, ||  
[M:3/4]D,4>D4 D2 A, A, ||  
[M:2/4]A,2> A,2 (A, ^G,3) | 
(A,2> ^G,2) A,2 A, F, | 
(A,2> ^G,2) A, F,3 | 
F,4D,2 D,2 | 
D,6E, D, | 
F,6D,2 | 
D,6D, C, | 
D,4E,2 D, C, | 
D,8 |]  



